X:262
T: EIN LIED IN EHREN
N: B0311
O: Europa, Mitteleuropa, Deutschland, Rheinland
R: Geselligkeits - Lied, Freude
M: 4/4
L: 1/16
K: F
C2F2G2 | A4G4z2G2G2A2 | B4A4z4
c4 | d6e2f2e2d2c2 | c6B2A4
c4 | f6e2d2c2d4 | e6d2c4
c4 | A3cf3eg6B2 | G3AB3Gc6
c2 | d4g4f4e4 | f8z2

